polaris-icons/icons/newicons/ChatMajor.svg

<svg width="20" height="20" viewBox="0 0 20 20" fill="none" xmlns="http://www.w3.org/2000/svg">
<path fill-rule="evenodd" clip-rule="evenodd" d="M7.5 14.8894L6 16V14.875V14.1336V13.375C4.61929 13.375 3.5 12.2557 3.5 10.875V8C3.5 6.61929 4.61929 5.5 6 5.5H14C15.3807 5.5 16.5 6.61929 16.5 8V10.875C16.5 12.2557 15.3807 13.375 14 13.375H9.54545L7.5 14.8894ZM10.0403 14.875H14C16.2091 14.875 18 13.0841 18 10.875V8C18 5.79086 16.2091 4 14 4H6C3.79086 4 2 5.79086 2 8V10.875C2 12.5537 3.03409 13.9909 4.5 14.5842V16C4.5 16.5665 4.81914 17.0847 5.32504 17.3396C5.83093 17.5945 6.43728 17.5426 6.89256 17.2055L10.0403 14.875ZM5.5 8C5.5 7.58579 5.83579 7.25 6.25 7.25H11.75C12.1642 7.25 12.5 7.58579 12.5 8C12.5 8.41421 12.1642 8.75 11.75 8.75H6.25C5.83579 8.75 5.5 8.41421 5.5 8ZM6.25 10C5.83579 10 5.5 10.3358 5.5 10.75C5.5 11.1642 5.83579 11.5 6.25 11.5H9.75C10.1642 11.5 10.5 11.1642 10.5 10.75C10.5 10.3358 10.1642 10 9.75 10H6.25Z" fill="black"/>
</svg>

<svg viewBox="0 0 20 20" fill="none" xmlns="http://www.w3.org/2000/svg"><path fill-rule="evenodd" clip-rule="evenodd" d="m7.5 14.89-1.5 1.11v-2.625a2.5 2.5 0 0 1-2.5-2.5v-2.875a2.5 2.5 0 0 1 2.5-2.5h8a2.5 2.5 0 0 1 2.5 2.5v2.875a2.5 2.5 0 0 1-2.5 2.5h-4.455l-2.045 1.514Zm2.54-.015h3.96a4 4 0 0 0 4-4v-2.875a4 4 0 0 0-4-4h-8a4 4 0 0 0-4 4v2.875a4.001 4.001 0 0 0 2.5 3.71v1.415a1.5 1.5 0 0 0 2.393 1.206l3.147-2.331Zm-4.54-6.875a.75.75 0 0 1 .75-.75h5.5a.75.75 0 0 1 0 1.5h-5.5a.75.75 0 0 1-.75-.75Zm.75 2a.75.75 0 0 0 0 1.5h3.5a.75.75 0 0 0 0-1.5h-3.5Z" fill="#000"/></svg>
